X:1
T:Title
%%score { 1 | 2 }
L:1/8
M:3/4
K:Db
V:1 treble nm="Grand Piano"
V:2 bass 
V:1
 z2 z2 z[Q:1/4=94] [FA] | [FA]>[DF] [FA]3 [Fd] | [Gd]>[Gc] [Gc]3 [GB] | [CA]3 [CG] [CE][CA] | %4
 [DF]4 [DF]2 | [DF]>[CE] [CE]3 [EG] | [EG]>F F3 F | E3 c c>B |[M:5/8] [A,CA]- [A,CA]3 z | %9
[M:1/8] A |[M:3/4] e>d c3 B | [GB]>[FA] [FA]3 [FA] | [GB]3 [GB] [Gc]>[Gd] | [Gc]4 [GA]2 | %14
 [Fd]>[Fd] [Fd]3 [_CDF] | [B,DG]>[DFA] [DGB]3 [DGB] | [DFA]3 [A,DF] [G,CE][A,CF] | %17
[M:5/8][K:bass] [F,A,D]- [F,A,D]3 z |] %18
V:2
 z2 z2 z [D,D] | [D,D]>[D,A,] [D,D]3 [D,A,] | [E,A,]>[E,A,] [E,A,]3 [E,A,] | %3
 [A,,A,]3 [A,,A,] [A,,A,][A,,A,] | [D,A,]4 [D,A,]2 | [A,,A,]>[A,,A,] [A,,A,]3 [A,,A,] | %6
 [D,A,]>[D,A,D] [D,A,D]3 [D,A,D] | [E,A,C]3 [E,A,E] [E,G,E]>[E,G,D] |[M:5/8] A,,- A,,3 z | %9
[M:1/8] A, |[M:3/4][K:treble] [A,CG]>[A,DF] [A,EG]3 [A,CG] | [D,D]>[D,D] [D,D]3 [D,D] | %12
 [G,D]3 [G,D] [E,A,]>[D,D] | [A,E]4 [A,C]2 | [D,D]>[D,D] [D,D]3 D, | G,>D, G,3 G, | D,3 D, A,,A,, | %17
[M:5/8] D,- D,3 z |] %18

